svg/nature/leaf_3_line.svg

<?xml version="1.0" encoding="UTF-8"?>
<svg width="24px" height="24px" viewBox="0 0 24 24" version="1.1" xmlns="http://www.w3.org/2000/svg" xmlns:xlink="http://www.w3.org/1999/xlink">
    <title>leaf_3_line</title>
    <g id="Icon" stroke="none" stroke-width="1" fill="none" fill-rule="evenodd">
        <g id="Nature" transform="translate(-480.000000, -2.000000)">
            <g id="leaf_3_line" transform="translate(480.000000, 2.000000)">
                <path d="M24,0 L24,24 L0,24 L0,0 L24,0 Z M12.5935,23.2578 L12.5819,23.2595 L12.5109,23.295 L12.4919,23.2987 L12.4767,23.295 L12.4057,23.2595 C12.3958,23.2564 12.387,23.259 12.3821,23.2649 L12.378,23.2758 L12.3609,23.7031 L12.3659,23.7235 L12.3769,23.7357 L12.4805,23.8097 L12.4953,23.8136 L12.5071,23.8097 L12.6107,23.7357 L12.6233,23.7197 L12.6267,23.7031 L12.6096,23.2758 C12.6076,23.2657 12.601,23.2593 12.5935,23.2578 Z M12.8584,23.1453 L12.8445,23.1473 L12.6598,23.2397 L12.6499,23.2499 L12.6472,23.2611 L12.6651,23.6906 L12.6699,23.7034 L12.6784,23.7105 L12.8793,23.8032 C12.8914,23.8069 12.9022,23.803 12.9078,23.7952 L12.9118,23.7812 L12.8777,23.1665 C12.8753,23.1546 12.8674,23.147 12.8584,23.1453 Z M12.143,23.1473 C12.1332,23.1424 12.1222,23.1453 12.1156,23.1526 L12.1099,23.1665 L12.0758,23.7812 C12.0751,23.7927 12.0828,23.8019 12.0926,23.8046 L12.1083,23.8032 L12.3092,23.7105 L12.3186,23.7024 L12.3225,23.6906 L12.3404,23.2611 L12.3372,23.2485 L12.3278,23.2397 L12.143,23.1473 Z" id="MingCute" fill-rule="nonzero"></path>
                <path d="M9,5.12132 C9,4.50203 9.50203,4 10.1213,4 C10.5571,4 10.9608,4.07665 11.2773,4.40764 C11.466,4.60491 11.727,4.71648 12,4.71648 C12.273,4.71648 12.534,4.60491 12.7227,4.40764 C13.0392,4.07665 13.4429,4 13.8787,4 C14.498,4 15,4.50203 15,5.12132 C15,5.41871 14.8819,5.70393 14.6716,5.91421 L12,8.58579 L9.32843,5.91421 C9.11814,5.70392 9,5.41871 9,5.12132 Z M10.1213,2 C8.39746,2 7,3.39746 7,5.12132 C7,5.94915 7.32885,6.74306 7.91421,7.32843 L11.2929,10.7071 C11.6834,11.0976 12.3166,11.0976 12.7071,10.7071 L16.0858,7.32843 C16.6711,6.74307 17,5.94915 17,5.12132 C17,3.39746 15.6025,2 13.8787,2 C13.215,2 12.5808,2.11338 12,2.45385 C11.4192,2.11338 10.785,2 10.1213,2 Z M18.8787,9 C19.498,9 20,9.50203 20,10.1213 C20,10.5571 19.9233,10.9608 19.5924,11.2773 C19.3951,11.466 19.2835,11.727 19.2835,12 C19.2835,12.273 19.3951,12.534 19.5924,12.7227 C19.9233,13.0392 20,13.4429 20,13.8787 C20,14.498 19.498,15 18.8787,15 C18.5813,15 18.2961,14.8819 18.0858,14.6716 L15.4142,12 L18.0858,9.32843 C18.2961,9.11814 18.5813,9 18.8787,9 Z M22,10.1213 C22,8.39746 20.6025,7 18.8787,7 C18.0509,7 17.2569,7.32885 16.6716,7.91421 L13.2929,11.2929 C12.9024,11.6834 12.9024,12.3166 13.2929,12.7071 L16.6716,16.0858 C17.2569,16.6711 18.0509,17 18.8787,17 C20.6025,17 22,15.6025 22,13.8787 C22,13.215 21.8866,12.5808 21.5462,12 C21.8866,11.4192 22,10.785 22,10.1213 Z M13.8787,20 C14.498,20 15,19.498 15,18.8787 C15,18.5813 14.8819,18.2961 14.6716,18.0858 L12,15.4142 L9.32843,18.0858 C9.11814,18.2961 9,18.5813 9,18.8787 C9,19.498 9.50203,20 10.1213,20 C10.5571,20 10.9608,19.9233 11.2773,19.5924 C11.466,19.3951 11.727,19.2835 12,19.2835 C12.273,19.2835 12.534,19.3951 12.7227,19.5924 C13.0392,19.9233 13.4429,20 13.8787,20 Z M17,18.8787 C17,20.6025 15.6025,22 13.8787,22 C13.215,22 12.5808,21.8866 12,21.5462 C11.4192,21.8866 10.785,22 10.1213,22 C8.39746,22 7,20.6025 7,18.8787 C7,18.0509 7.32885,17.2569 7.91421,16.6716 L11.2929,13.2929 C11.6834,12.9024 12.3166,12.9024 12.7071,13.2929 L16.0858,16.6716 C16.6711,17.2569 17,18.0509 17,18.8787 Z M5.12132,15 C4.50203,15 4,14.498 4,13.8787 C4,13.4429 4.07665,13.0392 4.40764,12.7227 C4.60491,12.534 4.71648,12.273 4.71648,12 C4.71648,11.727 4.60491,11.466 4.40764,11.2773 C4.07665,10.9608 4,10.5571 4,10.1213 C4,9.50203 4.50203,9 5.12132,9 C5.41871,9 5.70393,9.11814 5.91421,9.32843 L8.58579,12 L5.91421,14.6716 C5.70392,14.8819 5.41871,15 5.12132,15 Z M2,13.8787 C2,15.6025 3.39746,17 5.12132,17 C5.94915,17 6.74306,16.6711 7.32843,16.0858 L10.7071,12.7071 C11.0976,12.3166 11.0976,11.6834 10.7071,11.2929 L7.32843,7.91421 C6.74307,7.32885 5.94915,7 5.12132,7 C3.39746,7 2,8.39746 2,10.1213 C2,10.785 2.11338,11.4192 2.45385,12 C2.11338,12.5808 2,13.215 2,13.8787 Z" id="形状" fill="#09244B"></path>
            </g>
        </g>
    </g>
</svg>

<svg xmlns="http://www.w3.org/2000/svg" width="24" height="24"><g fill="none" fill-rule="evenodd"><path d="M24 0v24H0V0h24ZM12.594 23.258l-.012.002-.071.035-.02.004-.014-.004-.071-.036c-.01-.003-.019 0-.024.006l-.004.01-.017.428.005.02.01.013.104.074.015.004.012-.004.104-.074.012-.016.004-.017-.017-.427c-.002-.01-.009-.017-.016-.018Zm.264-.113-.014.002-.184.093-.01.01-.003.011.018.43.005.012.008.008.201.092c.012.004.023 0 .029-.008l.004-.014-.034-.614c-.003-.012-.01-.02-.02-.022Zm-.715.002a.023.023 0 0 0-.027.006l-.006.014-.034.614c0 .012.007.02.017.024l.015-.002.201-.093.01-.008.003-.011.018-.43-.003-.012-.01-.01-.184-.092Z"/><path fill="#09244B" d="M9 5.121C9 4.502 9.502 4 10.121 4c.436 0 .84.077 1.156.408a1 1 0 0 0 1.446 0c.316-.331.72-.408 1.156-.408a1.121 1.121 0 0 1 .793 1.914L12 8.586 9.328 5.914A1.121 1.121 0 0 1 9 5.121ZM10.121 2a3.121 3.121 0 0 0-2.207 5.328l3.379 3.38a1 1 0 0 0 1.414 0l3.379-3.38A3.122 3.122 0 0 0 13.879 2c-.664 0-1.298.113-1.879.454-.58-.34-1.215-.454-1.879-.454Zm8.758 7C19.498 9 20 9.502 20 10.121c0 .436-.077.84-.408 1.156a1 1 0 0 0 0 1.446c.331.316.408.72.408 1.156a1.121 1.121 0 0 1-1.914.793L15.414 12l2.672-2.672c.21-.21.495-.328.793-.328ZM22 10.121a3.121 3.121 0 0 0-5.328-2.207l-3.38 3.379a1 1 0 0 0 0 1.414l3.38 3.379A3.121 3.121 0 0 0 22 13.879c0-.664-.113-1.298-.454-1.879.34-.58.454-1.215.454-1.879ZM13.879 20a1.121 1.121 0 0 0 .793-1.914L12 15.414l-2.672 2.672A1.121 1.121 0 0 0 10.121 20c.436 0 .84-.077 1.156-.408a1 1 0 0 1 1.446 0c.316.331.72.408 1.156.408ZM17 18.879A3.121 3.121 0 0 1 13.879 22c-.664 0-1.298-.113-1.879-.454-.58.34-1.215.454-1.879.454a3.121 3.121 0 0 1-2.207-5.328l3.379-3.38a1 1 0 0 1 1.414 0l3.379 3.38c.585.585.914 1.379.914 2.207ZM5.121 15C4.502 15 4 14.498 4 13.879c0-.436.077-.84.408-1.156a1 1 0 0 0 0-1.446c-.331-.316-.408-.72-.408-1.156a1.121 1.121 0 0 1 1.914-.793L8.586 12l-2.672 2.672c-.21.21-.495.328-.793.328ZM2 13.879a3.121 3.121 0 0 0 5.328 2.207l3.38-3.379a1 1 0 0 0 0-1.414l-3.38-3.379A3.121 3.121 0 0 0 2 10.121c0 .664.113 1.298.454 1.879-.34.58-.454 1.215-.454 1.879Z"/></g></svg>
